app/public/logos/tel.svg

<?xml version="1.0" encoding="UTF-8" standalone="no"?>
<!-- Created with Inkscape (http://www.inkscape.org/) -->
<svg
   xmlns:svg="http://www.w3.org/2000/svg"
   xmlns="http://www.w3.org/2000/svg"
   version="1.0"
   width="216"
   height="216"
   id="svg1925">
  <defs
     id="defs1928" />
  <g
     style="fill:black"
     id="g1934">
    <path
       d="M 153.5,200.52489 C 137.08652,195.93139 126.63595,191.98531 112.5,185.0435 C 86.549663,172.29995 61.998653,153.47249 44.130703,132.61304 C 29.664393,115.72475 20.478691,102.0456 11.256914,83.658121 C 6.1428303,73.461048 5.6224169,71.805351 5.2147223,64.434873 C 4.7960949,56.866746 4.9820936,55.911585 8.233044,48.934873 C 15.317026,33.732272 26.387536,22.679091 40.857899,16.361088 C 49.544301,12.568459 52.063214,12.26384 54.180081,14.75 C 56.137804,17.049251 74,66.434787 74,69.548261 C 74,72.434068 72.100507,73.748525 61.64538,78.097713 C 53.60624,81.441884 50.881014,84.220217 52.639221,87.279378 C 53.11265,88.103111 73.282978,104.80223 97.462174,124.38854 C 125.70798,147.26899 142.21671,160 143.64075,160 C 146.78047,160 148.99816,157.38952 149.01101,153.67857 C 149.03111,147.8722 150.25392,142.93442 151.88703,142.06502 C 153.67517,141.11309 157.47392,140.67816 183,138.50277 C 207.36424,136.4264 209.62184,136.48578 211.40683,139.25 C 212.20594,140.4875 213.16601,144.67678 213.54032,148.55952 C 215.16243,165.38576 208.45819,181.19955 194.268,194.0186 C 182.10461,205.0067 174.08668,206.2863 153.5,200.52489 z "
       style="fill:black;fill-opacity:1"
       id="path1950" />
    <path
       d="M 153.5,200.52489 C 120.14863,191.19112 92.215853,176.4888 66.5,154.73272 C 43.977536,135.67831 25.28483,111.62866 11.256914,83.658121 C 6.1428303,73.461048 5.6224169,71.805351 5.2147223,64.434873 C 4.7960949,56.866746 4.9820936,55.911585 8.233044,48.934873 C 15.375261,33.607296 27.026987,22.135667 41.680482,16.004423 C 49.960091,12.540109 52.114363,12.323913 54.180081,14.75 C 56.137804,17.049251 74,66.434787 74,69.548261 C 74,72.434068 72.100507,73.748525 61.64538,78.097713 C 53.60624,81.441884 50.881014,84.220217 52.639221,87.279378 C 53.11265,88.103111 73.282978,104.80223 97.462174,124.38854 C 125.70798,147.26899 142.21671,160 143.64075,160 C 146.90998,160 148.99926,157.34346 149.00558,153.17857 C 149.01382,147.74414 150.82318,142.1886 152.78112,141.58598 C 155.04965,140.88778 199.7199,137 205.47372,137 C 211.50384,137 212.9827,139.33437 213.4903,149.65413 C 213.84862,156.93894 212.76218,164.46084 210.14833,172.79211 C 208.61439,177.68129 200.82,188.0997 194.268,194.0186 C 182.10461,205.0067 174.08668,206.2863 153.5,200.52489 z "
       style="fill:black;fill-opacity:1"
       id="path1948" />
    <path
       d="M 153.5,200.52489 C 137.36383,196.00899 126.83179,192.02749 112.5,185.02535 C 67.809114,163.19054 29.905112,124.3607 9.0026732,79 C 6.2367119,72.997545 5.4712655,69.960165 5.1691677,63.788206 C 4.8100853,56.452031 4.9886992,55.672718 8.8362677,47.788206 C 16.093805,32.91592 27.386445,21.988222 41.680482,16.005412 C 45.629748,14.352435 49.517395,13 50.319698,13 C 53.427066,13 55.916266,16.93069 59.818792,28 C 62.048695,34.325 66.1517,45.736852 68.93658,53.35967 C 74.202956,67.774874 74.85022,71.068527 72.75,72.764531 C 72.0625,73.319713 67.507637,75.499049 62.628083,77.607502 C 53.606359,81.505783 50.853108,84.171662 52.639221,87.279378 C 53.11265,88.103111 73.282978,104.80223 97.462174,124.38854 C 143.19359,161.43317 145.38172,162.8923 147.96482,158.06574 C 148.53417,157.0019 149.00251,154.6394 149.00558,152.81574 C 149.01417,147.70739 150.875,142.17265 152.78112,141.58598 C 155.04965,140.88778 199.7199,137 205.47372,137 C 209.03519,137 210.24317,137.46139 211.36456,139.25 C 214.64113,144.47611 214.15454,160.81284 210.3905,171.95293 C 207.03136,181.89468 193.43934,196.88249 183.5,201.60486 C 176.33605,205.0086 168.51518,204.72705 153.5,200.52489 z "
       style="fill:black;fill-opacity:1"
       id="path1946" />
    <path
       d="M 164.5,203.50211 C 163.95,203.31511 158.325,201.73079 152,199.9814 C 90.841499,183.06595 39.453849,140.63493 11.617924,84.067266 C 5.9806426,72.611285 5.4721769,71.023385 5.14585,63.855472 C 4.8092614,56.462157 4.9922601,55.665421 8.8362677,47.788206 C 15.761371,33.597152 25.759138,23.557909 39.49481,17.002477 C 47.460148,13.200972 50.985084,12.493921 53.323941,14.228558 C 55.283842,15.682139 74,65.761898 74,69.552524 C 74,72.477433 72.980354,73.198574 63.008921,77.325922 C 53.993756,81.057455 51.102987,83.736123 52.609582,86.962243 C 53.099312,88.010918 63.625,97.062729 76,107.07738 C 88.375,117.09203 102.71052,128.70902 107.85672,132.89292 C 138.41087,157.73368 141.44692,160 144.17039,160 C 147.4033,160 148.99748,157.63132 149.00558,152.81574 C 149.01416,147.71027 150.87434,142.17369 152.78112,141.57832 C 154.93228,140.90664 199.99188,137.01606 205.72695,137.00681 C 211.98059,136.99673 213.27753,139.51942 213.3295,151.79456 C 213.40231,168.98993 207.75358,181.66096 194.69725,193.58971 C 186.27819,201.28167 180.30136,203.99963 172,203.91128 C 168.425,203.87324 165.05,203.68911 164.5,203.50211 z "
       style="fill:black;fill-opacity:1"
       id="path1944" />
    <path
       d="M 159.39125,201.99936 C 137.2025,196.73912 108.87031,184.35761 89,171.23753 C 55.952752,149.4169 29.800532,120.00969 11.902632,84.544359 L 5.5,71.857314 L 5.5,63.178657 C 5.5,55.320879 5.8225459,53.846636 8.9100818,47.592376 C 12.152651,41.024074 19.039282,31.6043 23.458311,27.692802 C 27.975155,23.694723 38.836386,17.159807 44.367742,15.112149 C 50.534525,12.829263 53.422223,13.023099 54.879141,15.817725 C 56.922306,19.736874 74,67.894014 74,69.736355 C 74,72.443093 72.854585,73.242146 63.5,77.061255 C 53.839558,81.005233 51.510923,82.915226 52.339246,86.215528 C 52.746376,87.837662 66.870987,99.913826 96.014278,123.55651 C 119.70459,142.77543 140.35344,159.0375 141.9006,159.69444 C 146.58301,161.68264 148.57601,159.44329 149.33233,151.34409 C 149.75303,146.83894 150.55119,144.02556 151.73139,142.88787 C 153.1397,141.53029 157.77812,140.81592 174.5,139.38125 C 186.05,138.3903 198.86481,137.56163 202.97735,137.53976 C 210.27868,137.50094 210.48808,137.56919 211.87255,140.43909 C 214.08493,145.02521 213.6576,161.00086 211.10664,169.07218 C 207.31397,181.07232 195.34084,195.23896 184.02786,201.11188 C 178.13776,204.16961 169.81107,204.46956 159.39125,201.99936 z "
       style="fill:black;fill-opacity:1"
       id="path1942" />
    <path
       d="M 156.5,201.0153 C 94.86623,185.05979 43.844349,144.65402 13.791337,88 C 3.2179331,68.067693 2.5486406,60.439339 10.09979,45.925076 C 15.206054,36.110192 24.269158,26.027465 32.373618,21.145387 C 39.961273,16.574629 49.680317,12.763761 51.929274,13.477553 C 53.920841,14.109651 56.640213,19.772223 61.064544,32.5 C 62.594038,36.9 66.142055,46.8 68.949027,54.5 C 71.865162,62.499454 73.831185,69.415289 73.535997,70.63548 C 73.151378,72.22534 70.455876,73.865569 62.986167,77.055113 C 55.134578,80.40772 52.825898,81.845497 52.36863,83.667398 C 52.047252,84.947869 52.022893,86.617276 52.3145,87.37719 C 52.606106,88.137104 58.167137,93.062916 64.672347,98.32344 C 71.177556,103.58396 85.725,115.36689 97,124.50772 C 136.11535,156.21917 142.19019,161 143.36954,161 C 144.02154,161 145.50874,160.33196 146.67445,159.51547 C 148.3453,158.34516 148.94402,156.5362 149.50312,150.96896 C 150.07419,145.28244 150.62988,143.64785 152.35616,142.57649 C 155.4541,140.65388 207.0999,136.44791 209.80873,137.89763 C 213.49108,139.86837 214.35354,154.20025 211.534,166.56748 C 209.65454,174.81127 204.68551,183.02402 196.7934,190.93057 C 183.14724,204.6017 176.64253,206.22972 156.5,201.0153 z "
       style="fill:black;fill-opacity:1"
       id="path1940" />
    <path
       d="M 163,202.43702 C 116.45799,192.38411 71.809186,164.97022 39.321962,126.5 C 24.90691,109.43021 6.384578,76.431647 5.3207864,65.925023 C 4.207624,54.930783 10.537732,41.510992 22.5,29.505192 C 30.788536,21.186493 42.363289,14.728132 49.23594,14.587348 C 54.397528,14.481614 54.375323,14.444199 62.546368,37.015989 C 72.23463,63.778958 74.023157,69.351679 73.476782,71.073153 C 73.167306,72.048226 68.88596,74.419868 63.222734,76.75336 C 55.343327,80.000014 53.317691,81.266316 52.538401,83.432541 C 51.903131,85.198424 51.929089,86.681514 52.61489,87.802769 C 53.709169,89.591868 132.82966,154.36197 139.22318,158.70258 C 145.96511,163.27973 149.97765,159.64336 149.99442,148.94113 C 150.0048,142.31681 150.96311,141.86448 168.08979,140.39998 C 176.56541,139.67524 189.06465,138.5659 195.86589,137.93479 C 211.58101,136.47654 211.96165,136.72948 212.71458,149.13102 C 213.78065,166.69038 209.38334,177.79319 196.09142,191.10296 C 189.22817,197.97542 186.33584,200.13779 181.71249,201.85296 C 175.09397,204.30828 172.09654,204.40184 163,202.43702 z "
       style="fill:black;fill-opacity:1"
       id="path1938" />
    <path
       d="M 160.27206,201.50437 C 130.48288,194.5771 101.25594,180.5893 74.464072,160.43731 C 58.290691,148.27221 36.258198,124.05357 24.106197,105.08273 C 17.875417,95.355684 8.832708,78.203485 7.0657431,72.760423 C 3.3577197,61.338009 6.1975749,50.473109 16.719131,35.82787 C 25.516082,23.583157 49.729733,10.006056 53.603027,15.146298 C 54.792729,16.725149 57.351699,23.343998 67.023971,49.85995 C 75.107089,72.019332 75.095413,72.4255 66.287841,75.468105 C 56.51407,78.844487 52.521866,81.325497 52.186038,84.231864 C 51.743535,88.061445 52.453228,88.963622 62,96.707576 C 93.297959,122.09521 129.49577,151.42212 134.9499,155.81047 C 138.49735,158.66471 142.34884,161 143.50878,161 C 148.04557,161 149.75897,158.02568 149.92569,149.86078 C 150.06104,143.23203 152.2209,141.85531 164.06644,140.84727 C 211.96073,136.77152 208.35528,136.92898 210.26535,138.82962 C 213.09609,141.64639 213.68124,154.62319 211.44435,164.97617 C 209.25341,175.11646 203.19932,184.93698 194.01572,193.24765 C 182.66432,203.52008 175.9769,205.15643 160.27206,201.50437 z "
       style="fill:black;fill-opacity:1"
       id="path1936" />
  </g>
</svg>

<?xml version="1.0" encoding="UTF-8" standalone="no"?>
<!-- Created with Inkscape (http://www.inkscape.org/) -->
<svg id="svg1925" xmlns="http://www.w3.org/2000/svg" height="216" width="216" version="1.0">
 <g id="g1934">
  <path id="path1950" d="m153.5 200.52c-16.41-4.59-26.86-8.53-41-15.48-25.95-12.74-50.501-31.57-68.369-52.43-14.467-16.89-23.652-30.56-32.874-48.952-5.1142-10.197-5.6346-11.853-6.0423-19.223-0.4186-7.568-0.2326-8.523 3.0183-15.5 7.084-15.203 18.155-26.256 32.625-32.574 8.686-3.793 11.205-4.097 13.322-1.611 1.958 2.299 19.82 51.685 19.82 54.798 0 2.886-1.899 4.201-12.355 8.55-8.039 3.344-10.764 6.122-9.006 9.181 0.474 0.824 20.644 17.521 44.823 37.111 28.248 22.88 44.758 35.61 46.178 35.61 3.14 0 5.36-2.61 5.37-6.32 0.02-5.81 1.24-10.75 2.88-11.61 1.79-0.96 5.58-1.39 31.11-3.57 24.36-2.07 26.62-2.01 28.41 0.75 0.8 1.24 1.76 5.43 2.13 9.31 1.62 16.83-5.08 32.64-19.27 45.46-12.17 10.99-20.18 12.27-40.77 6.5z"/>
  <path id="path1948" d="m153.5 200.52c-33.35-9.33-61.284-24.03-87-45.79-22.522-19.05-41.215-43.1-55.243-71.072-5.1142-10.197-5.6346-11.853-6.0423-19.223-0.4186-7.568-0.2326-8.523 3.0183-15.5 7.142-15.328 18.794-26.799 33.447-32.931 8.28-3.464 10.434-3.68 12.5-1.254 1.958 2.299 19.82 51.685 19.82 54.798 0 2.886-1.899 4.201-12.355 8.55-8.039 3.344-10.764 6.122-9.006 9.181 0.474 0.824 20.644 17.521 44.823 37.111 28.248 22.88 44.758 35.61 46.178 35.61 3.27 0 5.36-2.66 5.37-6.82 0-5.44 1.81-10.99 3.77-11.59 2.27-0.7 46.94-4.59 52.69-4.59 6.03 0 7.51 2.33 8.02 12.65 0.36 7.29-0.73 14.81-3.34 23.14-1.54 4.89-9.33 15.31-15.88 21.23-12.17 10.99-20.18 12.27-40.77 6.5z"/>
  <path id="path1946" d="m153.5 200.52c-16.14-4.51-26.67-8.49-41-15.49-44.691-21.84-82.595-60.67-103.5-106.03-2.7633-6.002-3.5287-9.04-3.8308-15.212-0.3591-7.336-0.1805-8.115 3.6671-16 7.2577-14.872 18.55-25.8 32.844-31.783 3.95-1.653 7.837-3.005 8.64-3.005 3.107 0 5.596 3.931 9.499 15 2.23 6.325 6.333 17.737 9.118 25.36 5.266 14.415 5.913 17.709 3.813 19.405-0.688 0.555-5.242 2.734-10.122 4.843-9.022 3.898-11.775 6.564-9.989 9.671 0.474 0.824 20.644 17.521 44.823 37.111 45.728 37.04 47.918 38.5 50.498 33.68 0.57-1.07 1.04-3.43 1.05-5.25 0-5.11 1.87-10.65 3.77-11.23 2.27-0.7 46.94-4.59 52.69-4.59 3.57 0 4.77 0.46 5.89 2.25 3.28 5.23 2.79 21.56-0.97 32.7-3.36 9.94-16.95 24.93-26.89 29.65-7.16 3.41-14.98 3.13-30-1.08z"/>
  <path id="path1944" d="m164.5 203.5c-0.55-0.18-6.18-1.77-12.5-3.52-61.159-16.91-112.55-59.35-140.38-115.91-5.6394-11.459-6.1478-13.047-6.4742-20.215-0.3365-7.393-0.1535-8.19 3.6905-16.067 6.9247-14.191 16.923-24.23 30.659-30.786 7.965-3.801 11.49-4.508 13.829-2.773 1.96 1.453 20.676 51.533 20.676 55.324 0 2.924-1.02 3.646-10.991 7.773-9.015 3.731-11.906 6.41-10.399 9.636 0.489 1.049 11.015 10.101 23.39 20.118 12.375 10.01 26.71 21.63 31.86 25.81 30.55 24.84 33.59 27.11 36.31 27.11 3.23 0 4.83-2.37 4.84-7.18 0-5.11 1.86-10.65 3.77-11.24 2.15-0.67 47.21-4.56 52.95-4.57 6.25-0.01 7.55 2.51 7.6 14.78 0.07 17.2-5.58 29.87-18.63 41.8-8.42 7.69-14.4 10.41-22.7 10.32-3.58-0.04-6.95-0.22-7.5-0.41z"/>
  <path id="path1942" d="m159.39 202c-22.19-5.26-50.52-17.64-70.39-30.76-33.047-21.82-59.199-51.23-77.097-86.696l-6.403-12.687v-8.678c0-7.858 0.3225-9.332 3.4101-15.587 3.2429-6.568 10.129-15.988 14.548-19.899 4.517-3.998 15.378-10.533 20.91-12.581 6.167-2.283 9.054-2.089 10.511 0.706 2.043 3.919 19.121 52.076 19.121 53.918 0 2.707-1.145 3.506-10.5 7.325-9.66 3.944-11.989 5.854-11.161 9.155 0.407 1.622 14.532 13.698 43.675 37.344 23.686 19.22 44.336 35.48 45.886 36.13 4.68 1.99 6.68-0.25 7.43-8.35 0.42-4.5 1.22-7.31 2.4-8.45 1.41-1.36 6.05-2.07 22.77-3.51 11.55-0.99 24.36-1.82 28.48-1.84 7.3-0.04 7.51 0.03 8.89 2.9 2.21 4.59 1.79 20.56-0.76 28.63-3.8 12-15.77 26.17-27.08 32.04-5.89 3.06-14.22 3.36-24.64 0.89z"/>
  <path id="path1940" d="m156.5 201.02c-61.634-15.96-112.66-56.37-142.71-113.02-10.572-19.932-11.241-27.561-3.69-42.075 5.106-9.815 14.169-19.898 22.274-24.78 7.587-4.57 17.306-8.381 19.555-7.667 1.992 0.632 4.711 6.294 9.136 19.022 1.529 4.4 5.077 14.3 7.884 22 2.916 7.999 4.882 14.915 4.587 16.135-0.385 1.59-3.08 3.231-10.55 6.42-7.851 3.353-10.16 4.79-10.617 6.612-0.322 1.281-0.346 2.95-0.055 3.71 0.292 0.76 5.853 5.686 12.358 10.946 6.506 5.257 21.053 17.047 32.328 26.187 39.12 31.71 45.19 36.49 46.37 36.49 0.65 0 2.14-0.67 3.3-1.48 1.68-1.17 2.27-2.98 2.83-8.55 0.57-5.69 1.13-7.32 2.86-8.39 3.09-1.93 54.74-6.13 57.45-4.68 3.68 1.97 4.54 16.3 1.72 28.67-1.88 8.24-6.84 16.45-14.74 24.36-13.64 13.67-20.15 15.3-40.29 10.09z"/>
  <path id="path1938" d="m163 202.44c-46.54-10.06-91.191-37.47-123.68-75.94-14.413-17.07-32.935-50.068-33.999-60.575-1.1134-10.994 5.217-24.414 17.179-36.42 8.289-8.319 19.863-14.777 26.736-14.918 5.162-0.105 5.139-0.143 13.31 22.429 9.689 26.763 11.477 32.336 10.931 34.057-0.31 0.975-4.591 3.347-10.254 5.68-7.88 3.247-9.905 4.513-10.685 6.68-0.635 1.765-0.609 3.249 0.077 4.37 1.094 1.789 80.215 66.557 86.605 70.897 6.75 4.58 10.76 0.94 10.77-9.76 0.01-6.62 0.97-7.08 18.1-8.54 8.48-0.72 20.97-1.83 27.78-2.47 15.71-1.45 16.09-1.2 16.84 11.2 1.07 17.56-3.33 28.66-16.62 41.97-6.86 6.88-9.75 9.04-14.38 10.75-6.62 2.46-9.61 2.55-18.71 0.59z"/>
  <path id="path1936" d="m160.27 201.5c-29.79-6.92-59.01-20.91-85.806-41.06-16.173-12.17-38.206-36.39-50.358-55.36-6.231-9.724-15.273-26.877-17.04-32.32-3.7083-11.422-0.8684-22.287 9.653-36.932 8.797-12.245 33.011-25.822 36.884-20.682 1.19 1.579 3.749 8.198 13.421 34.714 8.083 22.159 8.071 22.566-0.736 25.608-9.774 3.376-13.766 5.857-14.102 8.764-0.442 3.829 0.267 4.732 9.814 12.476 31.298 25.392 67.5 54.712 72.95 59.102 3.55 2.85 7.4 5.19 8.56 5.19 4.54 0 6.25-2.97 6.42-11.14 0.13-6.63 2.29-8 14.14-9.01 47.89-4.08 44.29-3.92 46.2-2.02 2.83 2.82 3.41 15.79 1.17 26.15-2.19 10.14-8.24 19.96-17.42 28.27-11.36 10.27-18.04 11.91-33.75 8.25z"/>
 </g>
</svg>
